hosted/assets/icon/widgets/dark-mode/year-calendar.svg

<svg width="50" height="50" viewBox="0 0 50 50" fill="none" xmlns="http://www.w3.org/2000/svg">
<path d="M35 5H15V9H11V5H3V13H47V5H39V9H35V5Z" fill="#3B9281"/>
<path d="M12 0C10.9062 0 10 0.90625 10 2V4H4C3.47656 4 2.94531 4.19141 2.57031 4.57031C2.19141 4.94531 2 5.47656 2 6V46C2 46.5234 2.19141 47.0547 2.57031 47.4336C2.94531 47.8086 3.47656 48 4 48H46C46.5234 48 47.0547 47.8086 47.4336 47.4336C47.8086 47.0547 48 46.5234 48 46V6C48 5.47656 47.8086 4.94531 47.4336 4.57031C47.0547 4.19141 46.5234 4 46 4H40V2C40 0.90625 39.0938 0 38 0H36C34.9062 0 34 0.90625 34 2V4H16V2C16 0.90625 15.0938 0 14 0H12ZM12 2H14V8H12V2ZM36 2H38V8H36V2ZM4 6H10V8C10 9.09375 10.9062 10 12 10H14C15.0938 10 16 9.09375 16 8V6H34V8C34 9.09375 34.9062 10 36 10H38C39.0938 10 40 9.09375 40 8V6H46V13H4V6ZM4 15H46V46H4V15Z" fill="white"/>
<path d="M19.256 24.6997V25.9048H14.708C14.7573 25.4492 14.905 25.0182 15.1513 24.6119C15.3975 24.2025 15.8839 23.6608 16.6103 22.9866C17.1952 22.4418 17.5538 22.0724 17.6861 21.8785C17.8647 21.6107 17.9539 21.346 17.9539 21.0843C17.9539 20.795 17.8754 20.5734 17.7185 20.4195C17.5645 20.2625 17.3506 20.184 17.0767 20.184C16.8058 20.184 16.5903 20.2655 16.4302 20.4287C16.2702 20.5918 16.1778 20.8627 16.1532 21.2413L14.8604 21.112C14.9373 20.3979 15.179 19.8854 15.5853 19.5745C15.9916 19.2636 16.4995 19.1082 17.109 19.1082C17.7769 19.1082 18.3018 19.2882 18.6835 19.6484C19.0652 20.0085 19.256 20.4564 19.256 20.992C19.256 21.2967 19.2006 21.5876 19.0898 21.8647C18.982 22.1386 18.8097 22.4264 18.5727 22.7281C18.4157 22.9282 18.1325 23.216 17.7231 23.5915C17.3137 23.967 17.0536 24.2164 16.9428 24.3395C16.835 24.4626 16.7473 24.5827 16.6796 24.6997H19.256Z" fill="white"/>
<path d="M22.3311 19.1082C22.9867 19.1082 23.4993 19.3421 23.8686 19.81C24.3088 20.364 24.5289 21.2829 24.5289 22.5665C24.5289 23.847 24.3073 24.7674 23.864 25.3276C23.4977 25.7893 22.9867 26.0202 22.3311 26.0202C21.6724 26.0202 21.1414 25.7678 20.7381 25.263C20.3349 24.7551 20.1333 23.8516 20.1333 22.5526C20.1333 21.2783 20.3549 20.361 20.7982 19.8007C21.1645 19.339 21.6754 19.1082 22.3311 19.1082ZM22.3311 20.184C22.1741 20.184 22.0341 20.2348 21.9109 20.3363C21.7878 20.4348 21.6924 20.6134 21.6247 20.8719C21.5354 21.2075 21.4908 21.7723 21.4908 22.5665C21.4908 23.3606 21.5308 23.907 21.6108 24.2056C21.6908 24.5011 21.7909 24.6981 21.9109 24.7966C22.0341 24.8951 22.1741 24.9444 22.3311 24.9444C22.4881 24.9444 22.6281 24.8951 22.7513 24.7966C22.8744 24.695 22.9698 24.515 23.0375 24.2564C23.1268 23.924 23.1714 23.3606 23.1714 22.5665C23.1714 21.7723 23.1314 21.2275 23.0514 20.932C22.9714 20.6334 22.8698 20.4348 22.7466 20.3363C22.6266 20.2348 22.4881 20.184 22.3311 20.184Z" fill="white"/>
<path d="M29.7833 24.6997V25.9048H25.2354C25.2846 25.4492 25.4324 25.0182 25.6786 24.6119C25.9249 24.2025 26.4112 23.6608 27.1377 22.9866C27.7225 22.4418 28.0811 22.0724 28.2135 21.8785C28.392 21.6107 28.4813 21.346 28.4813 21.0843C28.4813 20.795 28.4028 20.5734 28.2458 20.4195C28.0919 20.2625 27.878 20.184 27.604 20.184C27.3331 20.184 27.1177 20.2655 26.9576 20.4287C26.7975 20.5918 26.7052 20.8627 26.6806 21.2413L25.3877 21.112C25.4647 20.3979 25.7063 19.8854 26.1126 19.5745C26.5189 19.2636 27.0268 19.1082 27.6363 19.1082C28.3043 19.1082 28.8291 19.2882 29.2108 19.6484C29.5925 20.0085 29.7833 20.4564 29.7833 20.992C29.7833 21.2967 29.7279 21.5876 29.6171 21.8647C29.5094 22.1386 29.337 22.4264 29.1 22.7281C28.943 22.9282 28.6598 23.216 28.2504 23.5915C27.841 23.967 27.5809 24.2164 27.4701 24.3395C27.3624 24.4626 27.2746 24.5827 27.2069 24.6997H29.7833Z" fill="white"/>
<path d="M35.047 24.6997V25.9048H30.499C30.5483 25.4492 30.696 25.0182 30.9423 24.6119C31.1885 24.2025 31.6749 23.6608 32.4013 22.9866C32.9862 22.4418 33.3448 22.0724 33.4772 21.8785C33.6557 21.6107 33.745 21.346 33.745 21.0843C33.745 20.795 33.6665 20.5734 33.5095 20.4195C33.3556 20.2625 33.1416 20.184 32.8677 20.184C32.5968 20.184 32.3813 20.2655 32.2213 20.4287C32.0612 20.5918 31.9688 20.8627 31.9442 21.2413L30.6514 21.112C30.7283 20.3979 30.97 19.8854 31.3763 19.5745C31.7826 19.2636 32.2905 19.1082 32.9 19.1082C33.568 19.1082 34.0928 19.2882 34.4745 19.6484C34.8562 20.0085 35.047 20.4564 35.047 20.992C35.047 21.2967 34.9916 21.5876 34.8808 21.8647C34.7731 22.1386 34.6007 22.4264 34.3637 22.7281C34.2067 22.9282 33.9235 23.216 33.5141 23.5915C33.1047 23.967 32.8446 24.2164 32.7338 24.3395C32.626 24.4626 32.5383 24.5827 32.4706 24.6997H35.047Z" fill="white"/>
<path d="M22.6405 32.0994V30.802H25.1892V32.0994H22.6405Z" fill="white"/>
<path d="M19.256 40.6997V41.9048H14.708C14.7573 41.4492 14.905 41.0182 15.1513 40.6119C15.3975 40.2025 15.8839 39.6608 16.6103 38.9866C17.1952 38.4418 17.5538 38.0724 17.6861 37.8785C17.8647 37.6107 17.9539 37.346 17.9539 37.0843C17.9539 36.795 17.8754 36.5734 17.7185 36.4195C17.5645 36.2625 17.3506 36.184 17.0767 36.184C16.8058 36.184 16.5903 36.2655 16.4302 36.4287C16.2702 36.5918 16.1778 36.8627 16.1532 37.2413L14.8604 37.112C14.9373 36.3979 15.179 35.8854 15.5853 35.5745C15.9916 35.2636 16.4995 35.1082 17.109 35.1082C17.7769 35.1082 18.3018 35.2882 18.6835 35.6484C19.0652 36.0085 19.256 36.4564 19.256 36.992C19.256 37.2967 19.2006 37.5876 19.0898 37.8647C18.982 38.1386 18.8097 38.4264 18.5727 38.7281C18.4157 38.9282 18.1325 39.216 17.7231 39.5915C17.3137 39.967 17.0536 40.2164 16.9428 40.3395C16.835 40.4626 16.7473 40.5827 16.6796 40.6997H19.256Z" fill="white"/>
<path d="M22.3311 35.1082C22.9867 35.1082 23.4993 35.3421 23.8686 35.81C24.3088 36.364 24.5289 37.2829 24.5289 38.5665C24.5289 39.847 24.3073 40.7674 23.864 41.3276C23.4977 41.7893 22.9867 42.0202 22.3311 42.0202C21.6724 42.0202 21.1414 41.7678 20.7381 41.263C20.3349 40.7551 20.1333 39.8516 20.1333 38.5526C20.1333 37.2783 20.3549 36.361 20.7982 35.8007C21.1645 35.339 21.6754 35.1082 22.3311 35.1082ZM22.3311 36.184C22.1741 36.184 22.0341 36.2348 21.9109 36.3363C21.7878 36.4348 21.6924 36.6134 21.6247 36.8719C21.5354 37.2075 21.4908 37.7723 21.4908 38.5665C21.4908 39.3606 21.5308 39.907 21.6108 40.2056C21.6908 40.5011 21.7909 40.6981 21.9109 40.7966C22.0341 40.8951 22.1741 40.9444 22.3311 40.9444C22.4881 40.9444 22.6281 40.8951 22.7513 40.7966C22.8744 40.695 22.9698 40.515 23.0375 40.2564C23.1268 39.924 23.1714 39.3606 23.1714 38.5665C23.1714 37.7723 23.1314 37.2275 23.0514 36.932C22.9714 36.6334 22.8698 36.4348 22.7466 36.3363C22.6266 36.2348 22.4881 36.184 22.3311 36.184Z" fill="white"/>
<path d="M29.7833 40.6997V41.9048H25.2354C25.2846 41.4492 25.4324 41.0182 25.6786 40.6119C25.9249 40.2025 26.4112 39.6608 27.1377 38.9866C27.7225 38.4418 28.0811 38.0724 28.2135 37.8785C28.392 37.6107 28.4813 37.346 28.4813 37.0843C28.4813 36.795 28.4028 36.5734 28.2458 36.4195C28.0919 36.2625 27.878 36.184 27.604 36.184C27.3331 36.184 27.1177 36.2655 26.9576 36.4287C26.7975 36.5918 26.7052 36.8627 26.6806 37.2413L25.3877 37.112C25.4647 36.3979 25.7063 35.8854 26.1126 35.5745C26.5189 35.2636 27.0268 35.1082 27.6363 35.1082C28.3043 35.1082 28.8291 35.2882 29.2108 35.6484C29.5925 36.0085 29.7833 36.4564 29.7833 36.992C29.7833 37.2967 29.7279 37.5876 29.6171 37.8647C29.5094 38.1386 29.337 38.4264 29.1 38.7281C28.943 38.9282 28.6598 39.216 28.2504 39.5915C27.841 39.967 27.5809 40.2164 27.4701 40.3395C27.3624 40.4626 27.2746 40.5827 27.2069 40.6997H29.7833Z" fill="white"/>
<path d="M30.6191 40.1086L31.875 39.9563C31.915 40.2764 32.0227 40.5211 32.1982 40.6904C32.3736 40.8597 32.586 40.9444 32.8354 40.9444C33.1032 40.9444 33.3279 40.8428 33.5095 40.6396C33.6942 40.4365 33.7865 40.1625 33.7865 39.8178C33.7865 39.4915 33.6988 39.2329 33.5233 39.0421C33.3479 38.8512 33.1339 38.7558 32.8815 38.7558C32.7153 38.7558 32.5168 38.7881 32.2859 38.8527L32.429 37.7954C32.7799 37.8046 33.0477 37.7292 33.2324 37.5692C33.4171 37.406 33.5095 37.1905 33.5095 36.9227C33.5095 36.695 33.4418 36.5133 33.3063 36.3779C33.1709 36.2425 32.9908 36.1747 32.7661 36.1747C32.5445 36.1747 32.3552 36.2517 32.1982 36.4056C32.0412 36.5595 31.9458 36.7842 31.9119 37.0797L30.716 36.8766C30.7991 36.4672 30.9238 36.1409 31.09 35.8977C31.2593 35.6515 31.4933 35.4591 31.7919 35.3205C32.0935 35.179 32.4306 35.1082 32.803 35.1082C33.4402 35.1082 33.9512 35.3113 34.336 35.7176C34.653 36.0501 34.8115 36.4256 34.8115 36.8442C34.8115 37.4383 34.4868 37.9124 33.8373 38.2664C34.2251 38.3495 34.5345 38.5357 34.7654 38.825C34.9993 39.1144 35.1163 39.4638 35.1163 39.8732C35.1163 40.4672 34.8993 40.9736 34.4652 41.3922C34.0312 41.8109 33.491 42.0202 32.8446 42.0202C32.232 42.0202 31.7241 41.8447 31.3209 41.4938C30.9177 41.1398 30.6837 40.6781 30.6191 40.1086Z" fill="white"/>
</svg>

<svg width="50" height="50" fill="none" xmlns="http://www.w3.org/2000/svg"><path d="M35 5H15v4h-4V5H3v8h44V5h-8v4h-4V5z" fill="#3B9281"/><path d="M12 0c-1.094 0-2 .906-2 2v2H4c-.523 0-1.055.191-1.43.57C2.191 4.945 2 5.477 2 6v40c0 .523.191 1.055.57 1.434.375.375.907.566 1.43.566h42c.523 0 1.055-.191 1.434-.566.375-.38.566-.91.566-1.434V6c0-.523-.191-1.055-.566-1.43-.38-.379-.91-.57-1.434-.57h-6V2c0-1.094-.906-2-2-2h-2c-1.094 0-2 .906-2 2v2H16V2c0-1.094-.906-2-2-2h-2zm0 2h2v6h-2V2zm24 0h2v6h-2V2zM4 6h6v2c0 1.094.906 2 2 2h2c1.094 0 2-.906 2-2V6h18v2c0 1.094.906 2 2 2h2c1.094 0 2-.906 2-2V6h6v7H4V6zm0 9h42v31H4V15z" fill="#fff"/><path d="M19.256 24.7v1.205h-4.548c.05-.456.197-.887.443-1.293.247-.41.733-.951 1.46-1.625.584-.545.943-.915 1.075-1.108.179-.268.268-.533.268-.795 0-.289-.079-.51-.236-.665-.154-.157-.367-.235-.641-.235-.271 0-.487.081-.647.245-.16.163-.252.434-.277.812l-1.293-.129c.077-.714.319-1.227.725-1.537.407-.311.915-.467 1.524-.467.668 0 1.193.18 1.574.54.382.36.573.808.573 1.344 0 .305-.055.596-.166.873-.108.274-.28.561-.517.863-.157.2-.44.488-.85.863-.41.376-.67.625-.78.748a2.305 2.305 0 00-.263.36h2.576zm3.075-5.592c.656 0 1.168.234 1.538.702.44.554.66 1.473.66 2.757 0 1.28-.222 2.2-.665 2.76-.366.462-.877.693-1.533.693-.659 0-1.19-.252-1.593-.757-.403-.508-.605-1.411-.605-2.71 0-1.275.222-2.192.665-2.752.367-.462.877-.693 1.533-.693zm0 1.076a.643.643 0 00-.42.152c-.123.099-.219.277-.286.536-.09.335-.134.9-.134 1.695 0 .794.04 1.34.12 1.639.08.295.18.492.3.59a.655.655 0 00.42.148.656.656 0 00.42-.147c.123-.102.219-.282.287-.54.089-.333.133-.896.133-1.69 0-.795-.04-1.34-.12-1.635-.08-.299-.181-.497-.304-.596a.625.625 0 00-.416-.152zm7.452 4.516v1.205h-4.548c.05-.456.197-.887.444-1.293.246-.41.732-.951 1.459-1.625.584-.545.943-.915 1.075-1.108.179-.268.268-.533.268-.795 0-.289-.078-.51-.235-.665-.154-.157-.368-.235-.642-.235-.27 0-.486.081-.646.245-.16.163-.253.434-.277.812l-1.293-.129c.077-.714.318-1.227.725-1.537.406-.311.914-.467 1.523-.467.668 0 1.193.18 1.575.54.382.36.572.808.572 1.344 0 .305-.055.596-.166.873-.108.274-.28.561-.517.863-.157.2-.44.488-.85.863-.409.376-.67.625-.78.748a2.312 2.312 0 00-.263.36h2.576zm5.264 0v1.205h-4.548c.05-.456.197-.887.443-1.293.247-.41.733-.951 1.46-1.625.584-.545.943-.915 1.075-1.108.179-.268.268-.533.268-.795 0-.289-.078-.51-.235-.665-.154-.157-.368-.235-.642-.235-.271 0-.487.081-.647.245-.16.163-.252.434-.277.812l-1.293-.129c.077-.714.319-1.227.725-1.537.407-.311.915-.467 1.524-.467.668 0 1.193.18 1.575.54.381.36.572.808.572 1.344 0 .305-.055.596-.166.873-.108.274-.28.561-.517.863-.157.2-.44.488-.85.863-.41.376-.67.625-.78.748a2.305 2.305 0 00-.263.36h2.576zM22.64 32.1v-1.298h2.55v1.297h-2.55zm-3.384 8.6v1.205h-4.548c.05-.456.197-.887.443-1.293.247-.41.733-.951 1.46-1.625.584-.545.943-.915 1.075-1.108.179-.268.268-.533.268-.795 0-.289-.079-.51-.236-.665-.154-.156-.367-.235-.641-.235-.271 0-.487.082-.647.245-.16.163-.252.434-.277.812l-1.293-.129c.077-.714.319-1.227.725-1.538.407-.31.915-.466 1.524-.466.668 0 1.193.18 1.574.54.382.36.573.808.573 1.344 0 .305-.055.596-.166.873-.108.274-.28.561-.517.863-.157.2-.44.488-.85.864-.41.375-.67.624-.78.748a2.305 2.305 0 00-.263.36h2.576zm3.075-5.592c.656 0 1.168.234 1.538.702.44.554.66 1.473.66 2.756 0 1.281-.222 2.201-.665 2.762-.366.461-.877.692-1.533.692-.659 0-1.19-.252-1.593-.757-.403-.508-.605-1.411-.605-2.71 0-1.275.222-2.192.665-2.752.367-.462.877-.693 1.533-.693zm0 1.076a.643.643 0 00-.42.152c-.123.099-.219.277-.286.536-.09.336-.134.9-.134 1.694 0 .795.04 1.341.12 1.64.08.295.18.492.3.59a.655.655 0 00.42.148.656.656 0 00.42-.147c.123-.102.219-.282.287-.54.089-.333.133-.896.133-1.69 0-.795-.04-1.34-.12-1.635-.08-.299-.181-.497-.304-.596a.625.625 0 00-.416-.152zm7.452 4.516v1.205h-4.548c.05-.456.197-.887.444-1.293.246-.41.732-.951 1.459-1.625.584-.545.943-.915 1.075-1.108.179-.268.268-.533.268-.795 0-.289-.078-.51-.235-.665-.154-.156-.368-.235-.642-.235-.27 0-.486.082-.646.245-.16.163-.253.434-.277.812l-1.293-.129c.077-.714.318-1.227.725-1.538.406-.31.914-.466 1.523-.466.668 0 1.193.18 1.575.54.382.36.572.808.572 1.344 0 .305-.055.596-.166.873-.108.274-.28.561-.517.863-.157.2-.44.488-.85.864-.409.375-.67.624-.78.748a2.312 2.312 0 00-.263.36h2.576zm.837-.591l1.255-.153c.04.32.148.565.323.734.176.17.388.254.637.254a.868.868 0 00.675-.304c.184-.203.276-.477.276-.822 0-.326-.087-.585-.263-.776a.839.839 0 00-.642-.286c-.166 0-.364.032-.595.097l.143-1.058c.35.01.619-.066.803-.226a.82.82 0 00.278-.646c0-.228-.068-.41-.204-.545a.73.73 0 00-.54-.203.782.782 0 00-.568.23c-.157.154-.252.38-.286.675l-1.196-.203c.083-.41.208-.736.374-.98a1.7 1.7 0 01.702-.576 2.352 2.352 0 011.011-.213c.637 0 1.148.203 1.533.61.317.332.476.708.476 1.126 0 .594-.325 1.068-.975 1.422.388.084.697.27.928.559.234.29.351.639.351 1.048 0 .594-.217 1.1-.65 1.52-.435.418-.975.627-1.621.627-.613 0-1.12-.175-1.524-.526-.403-.354-.637-.816-.702-1.385z" fill="#fff"/></svg>
